X: 4686
T:Gillan's Apples
C:Trad
S:O'Neill's
I:speed 280
M:6/8
K:G
M:6/8l
|:ef |
M:6/8
ggg B2A | GAG GBd | efe edB | dBA A3 |
GBd gdB | GBd g2 a | bag fge | ed^c d2:|
M:6/8l
|:eg |
M:6/8
faa faa | faa afd | gbb gbb | gbb bag |
faa faa | faa afa | bag fge | ed^c d2:|
